X:1
T:Title
%%score { ( 1 3 ) | ( 2 4 ) }
L:1/8
M:4/4
K:Eb
V:1 treble nm="Grand Piano"
V:3 treble 
V:2 bass 
V:4 bass 
V:1
 z4 z2[Q:1/4=100] [B,EG][B,FA] | [EGB]2 [B,EG][B,FA] [EGB]2 ed | c2 [Ee]2 [EB]2 [GB][Ge] | %3
 [Fd]2 [Ac][Ac] [GB]2 [FA][FA] | [EG]6 [EG][FA] | [GB]2 [EG][FA] [GB]2 ed | %6
 c2 [Ee]2 [EB]2 [GB][_Gc] | d3 d c2 c2 |[M:7/8] B-[EB-][FB-] [GB-] [AB]3 |[M:1/4] G[FA] | %10
[M:4/4] [GB] [GB]2 [GB] [Ac][GB]GE | G G2 A G2 G[FA] | [GB] [GB]2 [GB] [Ac][GB][B,EG][G,E] | %13
 [=A,EF]>[A,EF] [A,EG]2 [B,DF]2 [B,EG][B,FA] | [GB] [GB]2 [GB] [Ac][GB][_G=A][=GB] | e e2 d c2 de | %16
 B3 G [DA]2 D2 |[M:3/4] E6 |] %18
V:2
 z4 z2 E,E, | E,2 E,E, E,2 [G,B,E][G,B,E] | [A,E]2 [C,A,]2 [E,G,]2 [E,B,][E,B,] | %3
 [B,,B,]2 [B,,B,][B,,B,] [B,,B,]2 [B,,B,][B,,B,] | [E,B,]6 [E,B,][E,B,] | %5
 [E,E]2 [E,B,][E,B,] [E,E]2 [G,B,E][G,B,E] | [A,E]2 [C,A,]2 [E,G,]2 [E,B,][E,B,] | %7
 [F,B,F]3 [F,B,F] [F,=A,E]2 [F,A,E]2 |[M:7/8] z CD E D3 |[M:1/4] [E,B,E][E,B,] | %10
[M:4/4] [E,E] [E,E]2 [E,E] [E,E][E,E][E,B,E][E,G,] | %11
 [E,B,E] [E,B,E]2 [E,CE] [E,B,E]2 [E,B,E][E,B,] | [E,E] [E,E]2 [E,E] [E,E][E,E]E,E, | %13
 C,>C, F,2 B,,2 E,E, | [E,E] [E,E]2 [E,E] [E,E][E,E][E,E][E,E] | %15
 [G,B,E] [G,B,E]2 [G,B,E] [A,E]2 [A,CE][A,CE] | [B,EG]3[K:bass] [B,E] [B,,F,]2 [B,,A,B,]2 | %17
[M:3/4] [E,G,B,]6 |] %18
V:3
 x8 | x8 | x8 | x8 | x8 | x8 | x8 | x8 |[M:7/8] [B,D] z z z z z2 |[M:1/4] x2 |[M:4/4] x8 | x8 | %12
 x8 | x8 | x8 | x8 | x8 |[M:3/4] x6 |] %18
V:4
 x8 | x8 | x8 | x8 | x8 | x8 | x8 | x8 |[M:7/8] B,,-B,,-B,,- B,,- B,,3 |[M:1/4] x2 |[M:4/4] x8 | %11
 x8 | x8 | x8 | x8 | x8 | x3[K:bass] x5 |[M:3/4] x6 |] %18

